icons/verilog.svg

<svg version="1.1" viewBox="0 0 24 24" xmlns="http://www.w3.org/2000/svg">
<path d="m17.282 17.282h-10.565v-10.565h10.565m4.226 4.226v-2.113h-2.113v-2.113c0-1.1727-.95085-2.113-2.113-2.113h-2.113v-2.113h-2.113v2.113h-2.113v-2.113h-2.113v2.113h-2.113c-1.1727 0-2.113.94028-2.113 2.113v2.113h-2.113v2.113h2.113v2.113h-2.113v2.113h2.113v2.113a2.113 2.113 0 0 0 2.113 2.113h2.113v2.113h2.113v-2.113h2.113v2.113h2.113v-2.113h2.113a2.113 2.113 0 0 0 2.113 -2.113v-2.113h2.113v-2.113h-2.113v-2.113m-6.339 2.113h-2.113v-2.113h2.113m2.113-2.113h-6.339v6.339h6.339z" fill="#e78a4e" stroke-width="1.0565"/>
</svg>

<svg viewBox="0 0 24 24" xmlns="http://www.w3.org/2000/svg"><path d="M17.282 17.282H6.717V6.717h10.565m4.226 4.226V8.83h-2.113V6.717c0-1.173-.95-2.113-2.113-2.113h-2.113V2.491h-2.113v2.113h-2.113V2.491H8.83v2.113H6.717c-1.173 0-2.113.94-2.113 2.113V8.83H2.491v2.113h2.113v2.113H2.491v2.113h2.113v2.113a2.113 2.113 0 0 0 2.113 2.113H8.83v2.113h2.113v-2.113h2.113v2.113h2.113v-2.113h2.113a2.113 2.113 0 0 0 2.113-2.113v-2.113h2.113v-2.113h-2.113v-2.113m-6.339 2.113h-2.113v-2.113h2.113m2.113-2.113H8.83v6.339h6.339z" fill="#ff7043"/></svg>
